X: 41176
T: Tripping Up The Stairs
R: jig
M: 6/8
K: Dmajor
|:FAF GBG|FAd fed|cBc ABc|dfe dAG|
FAF GBG|FAd fed|cBc ABc|dfe d2A:|
dBB fBB|fgf fed|cAA eAA|efe edc|
dBB fBB|fgf fed|cBc ABc|dfe dag:|
dBB fBB|f/g/ag fed|cAA eAA|f/g/ag fec|
dBB fBB|f/g/ag fed|cBc ABc|dfe dag:|

